svg/300/outlined/timer_play-fill.svg

<svg xmlns="http://www.w3.org/2000/svg" width="48" height="48" viewBox="0 -960 960 960"><path d="M367.693-864.616v-45.383h224.614v45.383H367.693ZM480-100.617q-70.154 0-131.999-26.961-61.846-26.962-108.154-73.077-46.307-46.115-73.076-108.153-26.77-62.038-26.77-131.807 0-70.154 26.77-132 26.769-61.846 73.076-108.153 46.308-46.308 108.154-73.077Q409.846-780.614 480-780.614q63.923 0 120.692 21.808 56.769 21.807 101.23 61.038l46.385-45.999 32.614 32.614-46.384 46.384q36.769 40 61.115 95.654 24.347 55.654 24.347 128.5 0 69.769-26.77 131.807-26.769 62.038-73.076 108.153-46.308 46.115-108.154 73.077Q550.154-100.617 480-100.617Zm-67.23-207.384 198.306-133.614L412.77-574.23v266.229Z"/></svg>

<svg xmlns="http://www.w3.org/2000/svg" width="48" height="48" viewBox="0 -960 960 960"><path d="M367.69-864.62V-910h224.62v45.38H367.69Zm112.31 764q-70.15 0-132-26.96-61.85-26.96-108.15-73.07-46.31-46.12-73.08-108.16Q140-370.85 140-440.62q0-70.15 26.77-131.99 26.77-61.85 73.08-108.16 46.3-46.31 108.15-73.07 61.85-26.77 132-26.77 63.92 0 120.69 21.8 56.77 21.81 101.23 61.04l46.39-46 32.61 32.62-46.38 46.38q36.77 40 61.11 95.66Q820-513.46 820-440.62q0 69.77-26.77 131.81-26.77 62.04-73.08 108.16-46.3 46.11-108.15 73.07-61.85 26.96-132 26.96ZM412.77-308l198.31-133.62-198.31-132.61V-308Z"/></svg>
